X:123
T: Die elfjaehrige Markgraefin
N: Q0053A
O: Mitteleuropa, Deutschland (BRD) , Rheinpfalz
R: Ballade, Braut - Werbung, Hochzeit, Minderjaehrige, Tod
M: 4/4
L: 1/8
K: C
G2c2cc | G2GFE2D2 | C2z
EE2DE | F2EFG2FE | D2z
GG2AA | A3cB3d | c2
G2c2AA | G2AFE2D2 | C2z
GG2AA | A3cB3d | c2
G2c2AA | G2AFE2D2 | C2

@@@ Tune index: 859
